engine-off-outline.svg

<svg fill="currentColor" viewBox="0 0 24 24"><path d="m2.5 3.77 4.37 4.37L5 10v3H3v-3H1v8h2v-3h2v3h3l2 2h8v-.73l3.23 3.23 1.27-1.28L3.78 2.5zM16 18h-5l-2-2H7v-5l1-1h.73L16 17.27zm7-9v10h-.18L16 12.18V10h-2.18l-6-6H15v2h-3v2h6v4h2V9z"/></svg>

<svg  viewBox="0 0 24 24" fill="currentColor"><path  d="M2.5,3.77L6.87,8.14L5,10V13H3V10H1V18H3V15H5V18H8L10,20H18V19.27L21.23,22.5L22.5,21.22L3.78,2.5L2.5,3.77M16,18H11L9,16H7V11L8,10H8.73L16,17.27V18M23,9V19H22.82L16,12.18V10H13.82L7.82,4H15V6H12V8H18V12H20V9H23Z"/></svg>
